trunk/public/assets/images/icons/black/decline/doit.svg

<svg width="16" height="16" xmlns="http://www.w3.org/2000/svg" viewBox="0 0 16 16" shape-rendering="geometricPrecision"><defs><mask id="a"><rect fill="#fff" width="100%" height="100%"/><path d="M17.414 1.215l-2.624-2.63L13.066.31l-1.722-1.722-2.627 2.627 1.722 1.72-1.725 1.723 2.63 2.628 1.722-1.722 1.722 1.723 2.624-2.63-1.72-1.72z"/></mask></defs><path d="M16 4.656l-1.722-1.72L16 1.213 14.79 0l-1.724 1.722-1.722-1.72-1.212 1.21 1.722 1.722-1.724 1.722 1.215 1.214 1.722-1.723L14.79 5.87" fill="#cb1800"/><g mask="url(#a)"><ellipse cx="6.496" cy="3.368" rx="1.771" ry=".427"/><ellipse cx="10.762" cy="3.368" rx="1.772" ry=".427"/><path d="M8.268 3.573v.704c-.276.075-.448.173-.448.282 0 .234.793.426 1.77.426.978 0 1.77-.19 1.77-.427 0-.236-.792-.428-1.77-.428-.213 0-.414.01-.604.027v-.587h-.718z"/><path d="M12.533 3.573v1.15c0 .185-.49.34-1.172.4v.79c0 .235-.792.427-1.77.427-.977 0-1.77-.19-1.77-.427h-.006v-.907c-.194.053-.44.093-.718.118v.79c0 .235-.793.427-1.77.427-.98 0-1.772-.19-1.772-.426H3.55V4.522h.02c-.006.012-.016.024-.016.037 0 .234.793.426 1.77.426.98 0 1.772-.19 1.772-.427 0-.236-.793-.428-1.77-.428-.214 0-.415.01-.605.027v-.587h-.28L.974 7.038v6.88H11.56l3.466-3.466v-6.88h-2.493zm-1.725 9.493H1.883v-5.31h8.925v5.31zm3.7-3.16l-2.637 2.636v-5.15l2.638-2.637v5.152z"/></g></svg>

<?xml version="1.0"?><!DOCTYPE svg PUBLIC "-//W3C//DTD SVG 1.1//EN" "http://www.w3.org/Graphics/SVG/1.1/DTD/svg11.dtd"><svg width="16px" height="16px" xmlns="http://www.w3.org/2000/svg" viewBox="0 0 16 16" shape-rendering="geometricPrecision" fill="#000"><defs><mask id="decline-path"><rect fill="#fff" width="100%" height="100%"/><polygon points="17.414,1.215 14.79,-1.414 13.066,0.308 11.344,-1.414 8.717,1.213 10.439,2.934 8.715,4.656 11.345,7.284 13.067,5.562 14.789,7.285 17.414,4.655 15.693,2.935 " fill="#000"/></mask></defs><g fill="#cb1800"><polygon points="16,4.656 14.278,2.935 16,1.214 14.789,0.001 13.066,1.722 11.344,0.001 10.132,1.213 11.854,2.934 10.13,4.656 11.345,5.87 13.067,4.147 14.789,5.87 "/></g><g mask="url(#decline-path)"><ellipse cx="6.496" cy="3.368" rx="1.771" ry="0.427"/><ellipse cx="10.762" cy="3.368" rx="1.772" ry="0.427"/><path d="M8.268,3.573v0.704C7.992,4.352,7.82,4.45,7.82,4.559c0,0.235,0.793,0.427,1.77,0.427 c0.978,0,1.771-0.191,1.771-0.427c0-0.235-0.793-0.427-1.771-0.427c-0.213,0-0.414,0.01-0.604,0.027V3.573H8.268z"/><path d="M12.533,3.573v1.15c0,0.185-0.49,0.34-1.172,0.4v0.79c0,0.235-0.793,0.427-1.771,0.427 c-0.977,0-1.77-0.191-1.77-0.427H7.814V5.006C7.62,5.059,7.375,5.099,7.096,5.124v0.79c0,0.235-0.793,0.427-1.771,0.427 c-0.978,0-1.771-0.191-1.771-0.427H3.549V4.522h0.02C3.564,4.534,3.554,4.546,3.554,4.559c0,0.235,0.793,0.427,1.771,0.427 c0.979,0,1.771-0.191,1.771-0.427c0-0.235-0.793-0.427-1.771-0.427c-0.213,0-0.414,0.01-0.604,0.027V3.573H4.439L0.975,7.038 v6.879h10.586l3.465-3.465V3.573H12.533z M10.808,13.066H1.883V7.755h8.925V13.066z M14.508,9.907l-2.637,2.635V7.391l2.637-2.636 V9.907z"/></g></svg>
